X: 345
T: Sirba from Orhei
R: sirba
Q: 1/4=150
B: German Goldenshteyn "Shpilt klezmorimlach klingen zoln di gesalach" New York 2003 v.3 #45
Z: 2013 John Chambers <jc:trillian.mit.edu>
M: 2/4
L: 1/8
K: G
[|\
B>cd>e | d>^cd>e | d4 | B4 |\
d>^c=c>B | A>^GA>^A | B4 | G4 |
B>cd>e | d>^cd>g | b4 | g4 |\
d>^cd>e | f>ec>A | Gzz2 | "_>"F4 ||
|: E3 F | G3 ^G | A3 B | (3(cB)A (3(GF)E |\
^D3 E | F3 B, | (3(GF)E (3(GF)E | (3(GF)E B,2 |
E3 F | G3 ^G | A3 B | czz2 |\
(3(BcB) (3(ABA) | (3(GAG) (3(FGF) |[1 (3(E^DE) (3(GFG) | (3(B^AB) ez :|[2 E4- | E2z2 |]
